X:1
T:Must I Go, and Empty-Handed?
T:Must I Go, and Empty-Handed?
T:George Coles Stebbins
T:Charles Carroll Luther, 1877
T:Public Domain Courtesy of the Cyber Hymnal™
C:George Coles Stebbins
Z:Public Domain
Z:Courtesy of the Cyber Hymnal™
%%score ( 1 2 ) ( 3 4 )
L:1/8
Q:1/4=105
M:6/8
K:D
V:1 treble 
V:2 treble 
V:3 bass 
V:4 bass 
V:1
 [FA]2 [FA] ([FA][EG])[DF] | [Fd]2 [GB] [FA]2 [DF] | [EG]2 [EG] ([EG][DF])[CE] | [FA]2 [EG] [DF]3 | %4
w: 1.~“Must I go, * and|emp- ty hand- ed,”|Thus my dear * Re-|deem- er meet?|
w: 2.~Not at death * I|shrink or fal- ter,|For my Sav- * ior|saves me now;|
w: 3.~O the years * in|sin- ning wast- ed,|Could I but * re-|call them now,|
w: 4.~O ye saints, * a-|rouse, be ear- nest,|Up and work * while|yet ’tis day;|
 [FA]2 [FA] ([FA][EG])[DF] | [Fd]2 [GB] [FA]2 [DF] | [DB]2 [DB] [DA]2 [Fd] | [DF]2 [CE] D3 || %8
w: Not one day * of|ser- vice give Him,|Lay no tro- phy|at His feet?|
w: But to meet * Him|emp- ty hand- ed,|Thought of that now|clouds my brow.|
w: I would give * them|to my Sav- ior,|To His will I’d|glad- ly bow.|
w: Ere the night * of|death o’er- take thee,|Strived for souls while|still you may.|
"^Refrain" [Fd]2 [Fd] ([Fd][Ac])[GB] | [FA]2 [GB] [FA]2 [DF] | [Fd]2 [Fd] (dc)[FB] | %11
w: |||
w: |||
w: |||
w: |||
 [Ac]2 [^GB] (A2- [=GA]) | [FA]2 [FA] ([FA][EG])[DF] | [Fd]2 [GB] [FA]2 [DF] | %14
w: |||
w: |||
w: |||
w: |||
 [DB]2 [DB] [DA]2 [Fd] | [DF]2 [CE] D3 |] %16
w: ||
w: ||
w: ||
w: ||
V:2
 x6 | x6 | x6 | x6 | x6 | x6 | x6 | x3 D3 || x6 | x6 | x3 F2 x | x6 | x6 | x6 | x6 | x3 D3 |] %16
V:3
 [D,D]2 [D,D] [D,D]2 [D,A,] | [D,A,]2 [D,D] [D,D]2 [D,A,] | [A,,A,]2 [A,,A,] [A,,A,]2 [A,,A,] | %3
w: ~ ~ ~ ~|~ ~ ~ ~|~ ~ ~ ~|
 B,2 [C,A,] [D,A,]3 | [D,D]2 [D,D] [D,D]2 [D,A,] | [D,A,]2 [D,D] [D,D]2 [D,A,] | %6
w: ~ ~ ~|~ ~ ~ ~|~ ~ ~ ~|
 G,2 [G,B,] [F,D]2 [D,A,] | [A,,A,]2 [A,,G,] [D,F,]3 || [D,A,]2 [D,A,] [D,A,]2 [D,D] | %9
w: ~ ~ ~ ~|~ ~ ~|“Must I go, and|
 [D,D]2 [D,D] [D,D]2 [D,A,] | [B,,B,]2 [B,,B,] ([B,,B,][C,^A,])[D,B,] | [E,A,]2 [E,D] [A,,C]3 | %12
w: emp- ty hand- ed?”|Must I meet * my|Sav- ior so?|
 [D,D]2 [D,D] [D,D]2 [D,A,] | [D,A,]2 [D,D] [D,D]2 [D,A,] | G,2 [G,B,] [F,D]2 [F,A,] | %15
w: Not one soul with|which to greet Him,|Must I emp- ty|
 [A,,A,]2 [A,,G,] [D,F,]3 |] %16
w: hand- ed go?|
V:4
 x6 | x6 | x6 | (A,,B,,) x4 | x6 | x6 | G,2 x4 | x6 || x6 | x6 | x6 | x6 | x6 | x6 | G,2 x4 | x6 |] %16

